X: 11394
Q: "Slow and with much feeling."
M: 3/4
L: 1/8
K: Eb
e3de2 | (f2d2)B2 | c3Bc2 | B4G2 |\
(b2a2g2) | cf3e2 | e3dc2 | (c2B2)G2 |\
(d2B2)d2 | e2f2d2 | (d2e2) |]\
f2e2_d2 | (c2F2)G2 | A3cB2 | (A2G2)E2 |\
e3=de2 | (d2c2)B2 | Gg3f2 |
(f2e2)d2 |\
c2F2=A2 | (B2c2d2) | e2f2d2 | (d2e2)z |]\
(B2He2)zc | (c2Hf2)zd | (e2Hg2)zf | (f2Ha2)zf |\
(g2He2)zc | (c2B2e2) | (G2A2)F2 | (F2E2) :|


